src/img/svg/workouts-env.svg

<svg width="32" height="32" viewBox="0 0 32 32" fill="none" xmlns="http://www.w3.org/2000/svg">
<path d="M14.2388 13.8117C13.9833 13.9924 13.7643 14.22 13.5935 14.4823C13.5734 14.5132 13.5595 14.5478 13.5527 14.5841C13.5459 14.6204 13.5463 14.6577 13.5539 14.6938C13.5615 14.73 13.5761 14.7643 13.597 14.7948C13.6178 14.8252 13.6445 14.8513 13.6754 14.8715C13.7064 14.8917 13.741 14.9056 13.7773 14.9124C13.8136 14.9192 13.8509 14.9188 13.887 14.9112C13.9232 14.9036 13.9575 14.8889 13.9879 14.8681C14.0184 14.8472 14.0445 14.8205 14.0647 14.7896C14.1968 14.5865 14.3663 14.4103 14.5641 14.2704C14.6244 14.227 14.6651 14.1616 14.6773 14.0883C14.6896 14.0151 14.6723 13.94 14.6294 13.8794C14.5864 13.8188 14.5213 13.7776 14.4481 13.7649C14.3749 13.7522 14.2997 13.7689 14.2388 13.8115V13.8117Z" fill="#9C9C9C"/>
<path d="M9.14453 25.8722H7.08297V12.9881C7.08297 12.9834 7.08362 12.9791 7.08362 12.9745C7.08362 10.7502 8.79963 8.94052 10.9089 8.94052C12.9365 8.94052 14.5999 10.6133 14.7255 12.7189C14.1229 12.7905 13.5674 13.0805 13.1641 13.534C12.7608 13.9874 12.5376 14.5729 12.5367 15.1798V15.6193C12.5367 15.6939 12.5664 15.7654 12.6191 15.8181C12.6719 15.8709 12.7434 15.9005 12.818 15.9005H14.0695C14.1939 16.3505 14.5959 16.6829 15.0667 16.6829C15.5375 16.6829 15.9394 16.3507 16.0637 15.9005H17.2126C17.2872 15.9005 17.3587 15.8709 17.4114 15.8181C17.4642 15.7654 17.4938 15.6939 17.4938 15.6193V15.1798C17.493 14.5702 17.2679 13.9822 16.8613 13.528C16.4548 13.0737 15.8953 12.785 15.2895 12.7168C15.1615 10.3017 13.2458 8.37793 10.9089 8.37793C8.49756 8.37793 6.53453 10.4264 6.52141 12.9492C6.52094 12.9557 6.52042 12.9623 6.52042 12.9689V25.8721H4.75C4.67541 25.8721 4.60387 25.9018 4.55113 25.9545C4.49838 26.0073 4.46875 26.0788 4.46875 26.1534C4.46875 26.228 4.49838 26.2995 4.55113 26.3523C4.60387 26.405 4.67541 26.4346 4.75 26.4346H9.14453C9.21912 26.4346 9.29066 26.405 9.3434 26.3523C9.39615 26.2995 9.42578 26.228 9.42578 26.1534C9.42578 26.0788 9.39615 26.0073 9.3434 25.9545C9.29066 25.9018 9.21912 25.8721 9.14453 25.8721V25.8722ZM15.0666 16.1205C14.9887 16.1193 14.9123 16.0985 14.8445 16.0601C14.7766 16.0216 14.7195 15.9668 14.6784 15.9006H15.4548C15.4137 15.9668 15.3566 16.0216 15.2888 16.06C15.2209 16.0985 15.1446 16.1192 15.0666 16.1205ZM16.9313 15.1798V15.338H13.0992V15.1798C13.0992 14.6717 13.3011 14.1843 13.6604 13.825C14.0197 13.4657 14.5071 13.2638 15.0153 13.2638C15.5234 13.2638 16.0108 13.4657 16.3701 13.825C16.7294 14.1843 16.9313 14.6717 16.9313 15.1798Z" fill="#9C9C9C"/>
<path d="M26.2026 21.5269V19.6659C26.1998 19.3521 26.0727 19.0521 25.849 18.8319C25.6254 18.6117 25.3235 18.4892 25.0096 18.4912H19.863C19.7063 18.4904 19.551 18.5208 19.4062 18.5806C19.2613 18.6404 19.1298 18.7284 19.0193 18.8394C18.9961 18.8629 18.9743 18.887 18.9534 18.9118C18.8407 18.7797 18.7005 18.6736 18.5428 18.601C18.385 18.5284 18.2133 18.4909 18.0396 18.4912H12.8638C12.5499 18.4892 12.248 18.6117 12.0244 18.8319C11.8007 19.0521 11.6735 19.3521 11.6707 19.6659V21.5322C11.334 21.562 11.0205 21.7161 10.7913 21.9644C10.562 22.2127 10.4335 22.5375 10.4307 22.8755V26.1538C10.4307 26.2284 10.4603 26.2999 10.513 26.3527C10.5658 26.4054 10.6373 26.435 10.7119 26.435H12.8925C12.9671 26.435 13.0386 26.4054 13.0914 26.3527C13.1441 26.2999 13.1737 26.2284 13.1737 26.1538V25.7791L24.7879 25.7827V26.1538C24.7879 26.2284 24.8175 26.2999 24.8703 26.3527C24.923 26.4054 24.9946 26.435 25.0692 26.435H27.2497C27.3243 26.435 27.3958 26.4054 27.4486 26.3527C27.5013 26.2999 27.5309 26.2284 27.5309 26.1538V22.8754C27.5278 22.5222 27.3874 22.1841 27.1395 21.9324C26.8917 21.6808 26.5557 21.5354 26.2026 21.5269ZM19.4177 19.2363C19.4761 19.1778 19.5456 19.1315 19.622 19.1001C19.6985 19.0688 19.7804 19.0529 19.863 19.0535H25.0096C25.1744 19.0512 25.3332 19.1145 25.4514 19.2292C25.5696 19.344 25.6375 19.5009 25.6401 19.6656V21.6264C25.3898 21.7259 25.175 21.898 25.0231 22.1205C24.8713 22.343 24.7894 22.6058 24.7879 22.8752V22.9854L19.2341 22.984L19.2348 19.694C19.2334 19.6093 19.2489 19.5253 19.2803 19.4467C19.3117 19.3682 19.3584 19.2966 19.4177 19.2363ZM12.8638 19.0535H18.0395C18.2043 19.0512 18.3632 19.1145 18.4814 19.2293C18.5996 19.3441 18.6674 19.5012 18.67 19.6659L18.6713 22.9838L13.1737 22.9823V22.8754C13.172 22.59 13.0801 22.3125 12.9112 22.0824C12.7423 21.8524 12.505 21.6816 12.2332 21.5945V19.6659C12.2358 19.5012 12.3037 19.3442 12.4219 19.2294C12.5401 19.1146 12.699 19.0514 12.8638 19.0536V19.0535ZM12.6112 25.8723H10.9932V22.8754C10.9989 22.6646 11.0867 22.4645 11.2378 22.3175C11.3889 22.1705 11.5914 22.0882 11.8022 22.0882C12.013 22.0882 12.2155 22.1705 12.3666 22.3175C12.5177 22.4645 12.6055 22.6646 12.6112 22.8754V25.8723ZM13.1737 25.2163V23.5448L18.9524 23.5464H18.9528L24.7879 23.548V25.22L13.1737 25.2163ZM26.9684 25.8724H25.3504V22.8754C25.356 22.6645 25.4437 22.4641 25.5948 22.3169C25.7459 22.1698 25.9485 22.0874 26.1594 22.0874C26.3704 22.0874 26.573 22.1698 26.7241 22.3169C26.8752 22.4641 26.9629 22.6645 26.9684 22.8754V25.8724Z" fill="#9C9C9C"/>
</svg>

<svg width="32" height="32" fill="none" xmlns="http://www.w3.org/2000/svg"><path d="M14.239 13.812c-.256.18-.475.408-.646.67a.282.282 0 00.395.386.283.283 0 00.077-.078c.132-.204.301-.38.5-.52a.281.281 0 00-.326-.458z" fill="#9C9C9C"/><path d="M9.145 25.872H7.083V12.988v-.013c0-2.225 1.717-4.034 3.826-4.034 2.027 0 3.69 1.672 3.816 3.778a2.481 2.481 0 00-2.188 2.46v.44a.281.281 0 00.281.281h1.252c.124.45.526.783.997.783.47 0 .872-.332.997-.783h1.149a.28.28 0 00.28-.28v-.44a2.481 2.481 0 00-2.203-2.463c-.128-2.415-2.044-4.34-4.381-4.34-2.411 0-4.374 2.05-4.388 4.572v12.923H4.75a.281.281 0 000 .563h4.395a.281.281 0 100-.563zm5.922-9.752a.465.465 0 01-.389-.22h.777a.465.465 0 01-.388.22zm1.864-.94v.158H13.1v-.158a1.916 1.916 0 013.832 0z" fill="#9C9C9C"/><path d="M26.203 21.527v-1.861a1.185 1.185 0 00-1.193-1.175h-5.147a1.181 1.181 0 00-.91.42 1.199 1.199 0 00-.913-.42h-5.176a1.186 1.186 0 00-1.193 1.175v1.866a1.36 1.36 0 00-1.24 1.343v3.279a.282.282 0 00.28.281h2.181a.282.282 0 00.282-.281v-.375l11.614.004v.37a.281.281 0 00.281.282h2.18a.282.282 0 00.282-.281v-3.279a1.36 1.36 0 00-1.328-1.348zm-6.785-2.29a.624.624 0 01.445-.183h5.147a.622.622 0 01.63.612v1.96a1.352 1.352 0 00-.852 1.25v.11l-5.554-.002v-3.29a.638.638 0 01.184-.458zm-6.554-.183h5.175a.622.622 0 01.631.612l.001 3.318-5.497-.002v-.107a1.354 1.354 0 00-.94-1.28v-1.93a.622.622 0 01.63-.611zm-.253 6.818h-1.618v-2.997a.809.809 0 011.618 0v2.997zm.563-.656v-1.671l5.778.001 5.836.002v1.672l-11.614-.004zm13.794.656H25.35v-2.997a.81.81 0 011.618 0v2.997z" fill="#9C9C9C"/></svg>
